X:1
T:disturbed Sound of silence
%%scale 0.83
%%pagewidth 21.00cm
%%leftmargin 1.00cm
%%rightmargin 1.00cm
%%score { ( P 2 ) | ( 3 4 ) } ( 5 6 ) ( 7 8 ) 9 ( 10 11 ) ( 12 13 ) 14 ( 15 16 )
L:1/8
Q:1/4=100
M:2/4
I:linebreak $
K:Ebmaj
V:1 clef=treble nm="Piano, untitled" snm="Pno." 
V:2 clef=treble
V:3 clef=bass
V:4 clef=bass
V:5 clef=treble-8 nm="Electric Guitar" snm="El. Guit." 
V:6 clef=treble-8
V:7 clef=treble transpose=-9 nm="Alto Saxophone" snm="A. Sax." 
V:8 clef=treble transpose=-9
V:9 clef=treble nm="Violins" snm="Vlns." 
V:10 clef=treble-8 nm="Acoustic Guitar" snm="Guit." 
V:11 clef=treble-8
V:12 clef=bass nm="Effect Synthesizer" snm="Synth." 
V:13 clef=bass
V:14 clef=bass-8 nm="Contrabasses" snm="Cbs." 
V:15 clef=bass nm="Piano" snm="Pno." 
V:16 clef=bass
V:1
z =d3 | e2 z =d- | d2 z2 | z4 | z =d3 |$ e2 z =d- | d2 z2 | z4 |
z2 =c z | =d- [Bd] F z | F4- |$ %11
F3 z | z2 =d2 | e2 z =d- | d2 z2 | z4 |$ [=ca]2 .a =g- | g3[K: clef=bass] .E, | z2 B2 | z4 | %20
[K: clef=treble] z z/2 z/4 [ca]/4- [ca] z |$ z4 | z2 [=Ge]2 | a4- | a3 z | [e=c']4- | [ec']2 a2 | =g4- |$ %28
g z a .=g | [=ce]4- | [ce]4 | z4 | [=db]4- | [db]4 | z =g z g |$ e z z2 | =c4- | c4 | %38
z2[K: clef=bass] =C2- | C2 =C2- |$ C3 z | z4 | z2 =D2 | E3 z |$ z =G,- [G,=C]2- | [G,-C] G,2 z | %46
z4 |] %47
V:2
z2 =G2- | G =c- [=Gc] z | =G4- | G3 z | z2 =G2- |$ G =c- [=Gc] z | =G4- | G3 z | z2 z F- | %9
F z z =c- | c2 z2 |$ x4 | z2 z =G- | G =c- [=Gc] z | =G4- | G3 z |$ x4 | x3[K: clef=bass] x | E,4- | %19
E,3 z |[K: clef=treble] [=ca]2 [B=g]2- |$ [Bg]2 z2 | x4 | =c4- | c2 z2 | x4 | x4 | B4 |$ x4 | x4 | x4 | %31
x4 | x4 | x4 | =c2 f2- |$ f4- | f4- | f4 | z2[K: clef=bass] z F,- | [F,-=D]3 F,- |$ %40
[F,B,]2- [F,-B,=D-]2 | [F,D]4 | z2 z =C- | C =C- [=G,-C] G, |$ =C,4- | C,4 | x4 |] %47
V:3
z =G2 z | z4 | z2 e2- | e3 z | z =G2 z |$ z4 | z2 e2- | e3 z | z F z2 | z4 | z2 =d2- |$ d4 | %12
z =G z2 | z4 | z2 e2- | e3 z |$ z2[K: clef=treble] .=c [EB]- | [EB]3 z | z2 z =g- | g2 z2[K: clef=bass] | %20
A,2 z E- |$ E2 z .E, | z2 E2 | A,3 .A, | z2[K: clef=treble] .=c z |[K: clef=bass] A,2 z .A, | A,2 =c2 | %27
z2 z .E |$ E2- [E-f] [Ee] | =C3 =D | E3 .E, | E,4 | B,4- | B,3 B, |[K: clef=treble] z2 =d z |$ %35
=c =g =d2- | [=Cd]4- | [Cd]4 |[K: clef=bass] z B,3- | B, z z2 |$ z2 z =C- | %41
C B,- [B,=C]- [B,,B,C] | z =G,3- | G,2 z2 |$ z2 z E- | E3 z | z4 |] %47
V:4
C4- | C4 | =C4- X| C3 z | =C4- |$ C4 | =C4- | C3 z | B,4- | B,4 | B,4- |$ B,3 z | =C4- | %13
C4 | z =C3- | C3 z |$ A,3[K: clef=treble] z | x4 | x4 | E- [EB]- [EB=g][K: clef=bass] E | z2 A,2 |$ %21
x4 | E,4 | x4 | A,3[K: clef=treble] z |[K: clef=bass] x4 | x4 | E,4- |$ E,3 z | x4 | x4 | x4 | x4 | x4 | %34
[K: clef=treble] =C4- |$ C3 g- | g4- | g4 |[K: clef=bass] B,,4- | B,,4- |$ B,,2 B,,2- | B,,3 z | =C,4- | %43
C,3 =D- |$ D4- | D z z2 | x4 |] %47
V:5
X | X | X | X | X |$ X | X | X | X | X | X |$ X | z4 | z4 | z4 | z4 |$ z4 | z4 | z4 | %19
w: |||||||||||||||||||
z4 | z4 |$ z4 | z4 | z4 | z4 | z4 | z4 | z4 |$ z4 | z4 | z4 | z4 | z4 | z4 | z4 |$ z4 | z4 | %37
w: ||||||||||||||||||
z2 z b- | b4- | b4 |$ z4 | z4 | z4 | z4 |$ z4 | z4 | z4 |] %47
w:a|lone~|||||||||
V:6
x4 | x4 | x4 | x4 | x4 |$ x4 | x4 | x4 | x4 | x4 | x4 |$ x4 | x4 | x4 | x4 | x4 |$ x4 | x4 | x4 | %19
x4 | x4 |$ x4 | x4 | x4 | x4 | x4 | x4 | x4 |$ x4 | x4 | x4 | x4 | x4 | x4 | x4 |$ x4 | x4 | %37
z2 z z/2 f/4-[Bef]/4- | [FBcef]- [B,FBcef]3- | [B,-F-B-cef]4 |$ [B,FB] z z2 | x4 | x4 | x4 |$ %44
x4 | x4 | x4 |] %47
V:7
X | X | X | X | X |$ z4 | z2 .=A, .A, | .C C .=E E | D4- | D2 z2 | %10
z .G, =B,/2 z/4 B,/4 B,- |$ B, =B, D D- | D z C2- | C2 z2 | z C .C C | .=E E .G G |$ %16
z =A2 z | z4 | z4 | =E .E .G G | =A2 A G- |$ G4 | z2 .C C | =A A3- | A z =A =B | c c3 | %26
=B z G2- | G4 |$ z2 =A2- | A G =E2- | E z z2 | z .C .C C | G4- | G z z =B, | C =A,3- |$ %35
A,3 z | z .=A, .A, A, | .C C =E C | D4- | D3 z |$ z G, =B, .B, | =B, B, D z | C4- | %43
C2 z2 |$ z2 C C | .=E z z2 | z4 |] %47
V:8
x4 | x4 | x4 | x4 | x4 |$ x4 | x4 | x4 | x4 | x4 | x4 |$ x4 | x4 | x4 | x4 | x4 |$ =A z G2- | %17
G4- | G z .C C | x4 | x4 |$ x4 | x4 | x4 | x4 | x4 | z =A2 z | x4 |$ x4 | x4 | x4 | x4 | x4 | %33
x4 | x4 |$ x4 | x4 | x4 | x4 | x4 |$ x4 | z2 z =B,- | B, z z2 | x4 |$ x4 | x4 | x4 |] %47
V:9
X | X | X | X | X |$ X | X | X | X | X | X |$ z4 | z4 | z4 | z4 | z4 |$ z4 | z4 | z4 | %19
z4 | z4 |$ z4 | z4 | z4 | z4 | z4 | z4 | z4 |$ z4 | z4 | z4 | z4 | z4 | z4 | z4 |$ z4 | z4 | z4 | %38
[B,,,B,,]4- | [B,,,B,,]4- |$ [B,,,B,,]4- | [B,,,B,,]2 z2 | [C,,C,]4- | [C,,C,]4- |$ %44
[C,,C,]4- | [C,,C,]4 | z4 |] %47
V:10
X | X | X | X | X |$ X | X | X | X | X | X |$ X | X | X | X | X |$ X | X | X | %19
X | X |$ X | X | X | X | X | X | X |$ X | X | X | X | X | X | X |$ X | X | X | %38
X | X |$ X z2 f2- | f4 b2- [fb]2 | z8 | z2 Bc ded (3z/8 c/8B/2-B/2 |$ c4 X | B8 | z8 |] %47
V:11
x4 | x4 | x4 | x4 | x4 |$ x4 | x4 | x4 | x4 | x4 | x4 |$ x4 | x4 | x4 | x4 | x4 |$ x4 | x4 | x4 | %19
x4 | x4 |$ x4 | x4 | x4 | x4 | x4 | x4 | x4 |$ x4 | x4 | x4 | x4 | x4 | x4 | x4 |$ x4 | x4 | x4 | %38
x4 | x4 |$ B4- | B3 z | x4 | x4 |$ z2 C2- | C4 | x4 |] %47
V:12
X | X | X | X | X |$ X | X | X | X | X | X |$ X | X | X | X | X |$ z4 | z4 | z4 | %19
z4 | z4 |$ z4 | z4 | z4 | z4 | z4 | z4 | z4 |$ z4 | z4 | z4 | z4 | z4 | z4 | z4 |$ z4 | z4 | z4 | %38
z4 | z4 |$ z4 | z4 | [C,G,C]4- | [C,G,C]4- |$ [C,G,C]4- | [C,G,C]4- | [C,G,C] z z2 |] %47
V:13
x4 | x4 | x4 | x4 | x4 |$ x4 | x4 | x4 | x4 | x4 | x4 |$ x4 | x4 | x4 | x4 | x4 |$ x4 | x4 | x4 | %19
x4 | x4 |$ x4 | x4 | x4 | x4 | x4 | x4 | x4 |$ x4 | x4 | x4 | x4 | x4 | x4 | x4 |$ x4 | x4 | x4 | %38
[B,,F,B,]4- | [B,,F,B,]4- |$ [B,,F,B,]4- | [B,,F,B,]4- | [B,,F,B,] z z2 | x4 |$ x4 | x4 | %46
x4 |] %47
V:14
X | X | X | X | X |$ X | X | X | X | X | X |$ X | X | X | X | X |$ z4 | z4 | z4 | %19
z4 | z4 |$ z4 | z4 | z4 | z4 | z4 | z4 | z4 |$ z4 | z4 | z4 | z4 | z4 | z4 | z4 |$ z4 | z4 | z4 | %38
[B,,B,]4- | [B,,B,]4- |$ [B,,B,]4- | [B,,B,]2 z2 | [C,C]4- | [C,C]4- |$ [C,C]4- | [C,C]4 | %46
z4 |] %47
V:15
[CEG] z z2 | z4 | z4 | z4 | z4 |$ z4 | z4 | z4 | [B,DF] z z2 | z4 | z4 |$ z4 | [CEG] z z2 | %13
z4 | z4 | z4 |$[K: clef=treble] c z z2 | z4 | z4 | z4 | e2 z2 |$ [EGB] z z2 | [EGB] z z2 | %23
[Ace] z z2 | z4 | z4 | z4 |[K: clef=bass] [EGB] z z2 |$ z4 | [CEG]2 z2 | z4 | z4 | [B,DF]2 z2 | %33
z4 | [CEG] z z2 |$ z4 | z4 | z4 | [B,DF] z z2 | z4 |$ z4 | z4 | [CEG]2 z2 | z4 |$ z4 | z4 | %46
z4 |] %47
V:16
x4 | x4 | x4 | x4 | x4 |$ x4 | x4 | x4 | x4 | x4 | x4 |$ x4 | x4 | x4 | x4 | x4 |$ %16
[K: clef=treble] [Ae]2 z [EGB]- | [EGB] z z2 | x4 | x4 | [Ac] z z2 |$ x4 | x4 | x4 | x4 | x4 | x4 | %27
[K: clef=bass] x4 |$ x4 | x4 | x4 | x4 | x4 | x4 | x4 |$ x4 | x4 | x4 | x4 | x4 |$ x4 | x4 | x4 | x4 |$ %44
x4 | x4 | x4 |] %47

